X:450
T:Sheila Coyle's
M:C|
L:1/8
Q:120
R:Reel (Key of D)
K:D
"D"FA~A2 FADF | ADFA BAFD | "G"GBBA ~B3B | "A"ABdf edBA |
"D"FA~A2 FADF | ADFA BAFD | "G"GB~B2 "D"AFDF | "A"EFGE "D"FDD2 :|:
"D"dffe fgfe | ~d3B AFDF | "A"Ac~c2 ecAc | "G"~B3A BAFA |
"D"dffe fgfe | ~d3B AFDF | "G"GB~B2 "D"AFDF | "A"EFGE "D"FDD2 :|]
